remix/Media/notification-off-fill.svg

<svg viewBox="0 0 24 24" fill="currentColor" xmlns="http://www.w3.org/2000/svg"><path d="M18.5859 20H4.00016C3.72401 20 3.50016 19.7762 3.50016 19.5C3.50016 19.3918 3.53525 19.2866 3.60016 19.2L4.00016 18.6667V10C4.00016 8.67022 4.32462 7.41619 4.8987 6.31279L1.39355 2.80765L2.80777 1.39343L22.6068 21.1924L21.1925 22.6066L18.5859 20ZM20.0002 15.7858L7.55919 3.34486C8.8297 2.49537 10.3571 2.00003 12.0002 2.00003C16.4184 2.00003 20.0002 5.58176 20.0002 10V15.7858ZM9.50016 21H14.5002C14.5002 22.3807 13.3809 23.5 12.0002 23.5C10.6194 23.5 9.50016 22.3807 9.50016 21Z"/></svg>

<svg viewBox="0 0 24 24" xmlns="http://www.w3.org/2000/svg"><path fill="none" d="M0 0h24v24H0Z"/><path d="M18.586 20H3.99v0c-.28 0-.5-.23-.5-.5 0-.11.03-.22.1-.3l.4-.54V9.99c0-1.33.32-2.59.899-3.69L1.38 2.79 2.8 1.38l19.799 19.8 -1.42 1.41 -2.61-2.61Zm1.41-4.214L7.54 3.33l0-.001c3.67-2.46 8.64-1.47 11.09 2.21 .87 1.31 1.34 2.86 1.34 4.44v5.786ZM9.49 21h5v0c0 1.38-1.12 2.5-2.5 2.5 -1.39 0-2.5-1.12-2.5-2.5Z"/></svg>
